assets/icons/qvision/restaurant_menu.svg

<svg width="24" height="24" viewBox="0 0 24 24" fill="none" xmlns="http://www.w3.org/2000/svg">
<g clip-path="url(#clip0_147_5614)">
<path d="M8.09999 13.34L10.93 10.51L3.90999 3.49999C2.34999 5.05999 2.34999 7.58999 3.90999 9.15999L8.09999 13.34ZM14.88 11.53C16.41 12.24 18.56 11.74 20.15 10.15C22.06 8.23999 22.43 5.49999 20.96 4.02999C19.5 2.56999 16.76 2.92999 14.84 4.83999C13.25 6.42999 12.75 8.57999 13.46 10.11L3.69999 19.87L5.10999 21.28L12 14.41L18.88 21.29L20.29 19.88L13.41 13L14.88 11.53Z" fill="#323232"/>
</g>
<defs>
<clipPath id="clip0_147_5614">
<rect width="24" height="24" fill="white"/>
</clipPath>
</defs>
</svg>

<svg xmlns="http://www.w3.org/2000/svg" height="24" viewBox="0 0 24 24" width="24"><path d="M0 0h24v24H0z" fill="none"/><path d="M8.1 13.34l2.83-2.83L3.91 3.5c-1.56 1.56-1.56 4.09 0 5.66l4.19 4.18zm6.78-1.81c1.53.71 3.68.21 5.27-1.38 1.91-1.91 2.28-4.65.81-6.12-1.46-1.46-4.2-1.1-6.12.81-1.59 1.59-2.09 3.74-1.38 5.27L3.7 19.87l1.41 1.41L12 14.41l6.88 6.88 1.41-1.41L13.41 13l1.47-1.47z"/></svg>
